static/images/mobile/copyright/wikipedia-wordmark-olo.svg

<?xml version="1.0" encoding="UTF-8"?>
<svg width="120px" height="20px" viewBox="0 0 120 20" version="1.1" xmlns="http://www.w3.org/2000/svg" xmlns:xlink="http://www.w3.org/1999/xlink">
    <title>olo-wordmark</title>
    <g id="Page-1" stroke="none" stroke-width="1" fill="none" fill-rule="evenodd">
        <path d="M30.1330396,3.55271368e-15 L30.1966022,0.0558912213 L30.1966022,0.601652558 C30.1966022,0.749599909 30.1122174,0.824121537 29.9456396,0.824121537 C29.1280935,0.860286445 28.5220573,1.03782327 28.1297229,1.35454019 C27.7362925,1.67344892 27.4294388,2.11181144 27.2091616,2.68387453 C27.2091616,2.68387453 25.6510396,6.24990642 23.9654286,10.0885728 L23.6835583,10.7303102 C23.5893716,10.9446877 23.4950367,11.1593419 23.4007989,11.3737081 L23.1186223,12.0153783 C22.039943,14.467473 21.0065511,16.8068021 20.3915285,18.1745101 C19.7263134,19.4413777 19.0720573,19.3252117 18.4967065,18.1383452 C18.0610114,17.2410253 17.3416626,15.6894994 16.5980281,14.0681403 L16.2449848,13.2972055 C15.8763158,12.4909842 15.5117301,11.6902595 15.1826792,10.9658939 C14.0076677,13.3909164 12.3974512,16.6789755 11.5990723,18.1591674 C10.8231706,19.508228 10.1842572,19.3317871 9.67575671,18.1942364 C8.82569873,16.1886061 7.54450459,13.4530676 6.25394795,10.6979573 L5.65917745,9.42756476 C4.47445012,6.89434653 3.33703468,4.43756814 2.57866752,2.61592834 C2.26304651,1.8608489 2.02523484,1.37645831 1.80057405,1.18467471 C1.57481735,0.99508292 1.10576946,0.881108664 0.392334455,0.842751944 C0.13041285,0.81425838 0,0.750695815 0,0.647680623 L0,0.0767134409 L0.0635625653,0.0208222197 C0.126355034,0.0204667906 0.202179903,0.0201497863 0.289444793,0.0198680912 L0.583967149,0.0191258183 C0.638243427,0.0190187222 0.694981616,0.0189196746 0.753982668,0.018828286 L1.55787374,0.0180743298 C1.63179295,0.018037982 1.70717883,0.0180077355 1.78383234,0.0179832008 L3.00382618,0.017994884 C3.08817979,0.0180177311 3.17280579,0.0180443429 3.25750513,0.0180743298 L4.74702035,0.0188944908 C4.82543413,0.0189509596 4.90272697,0.019008467 4.97869983,0.0190666234 L5.99441282,0.0199389694 C6.05220964,0.0199938804 6.10769123,0.0200474934 6.16065856,0.0200994187 L6.84722256,0.0208222197 L6.91078512,0.0767134409 L6.91078512,0.620282965 C6.91078512,0.770422128 6.81544127,0.842751944 6.6280413,0.842751944 L5.92008583,0.872341414 C5.31295374,0.897547259 5.00938769,1.0794677 5.00938769,1.41591094 C5.00938769,1.57262554 5.07295026,1.82797171 5.21432217,2.16989447 C5.78054043,3.54982315 6.92572446,6.07303325 8.069101,8.5472193 L8.34317931,9.13947223 C9.75599861,12.1882744 11.094599,15.0150341 11.2516641,15.3464731 L11.2670127,15.3788531 L11.4390699,15.4237853 L14.4659151,9.38518491 C14.0952653,8.5663371 13.8588311,8.04176042 13.8588311,8.04176042 L11.7788009,3.95402993 C11.7788009,3.95402993 11.3766033,3.13648383 11.239615,2.86469907 C10.3256292,1.05426186 10.3453555,0.957822105 9.42150645,0.8350806 C9.16287257,0.801107505 9.029172,0.768230316 9.029172,0.640009279 L9.029172,0.0668502842 L9.10698135,0.010959063 L10.0171643,0.0100838229 C10.0848992,0.0100350609 10.1537523,0.00998810499 10.223548,0.00994288816 L12.4244267,0.00904122697 C12.4954979,0.00902410343 12.5657542,0.00900805012 12.6350197,0.00899300013 L14.4900731,0.00876725039 L14.6325409,0.0558912213 L14.6325409,0.626858403 C14.6325409,0.757271253 14.5393889,0.824121537 14.3497971,0.824121537 L13.9596544,0.880012758 C12.9733388,0.956726199 13.134437,1.36001972 13.789789,2.66524412 L15.786,6.751 L17.9925896,2.35181492 C18.3372887,1.6000232 18.2943973,1.37424702 18.1632958,1.19601271 L18.1339615,1.15837296 C18.046289,1.05426186 17.7525861,0.88549229 17.1136728,0.860286445 L16.8627102,0.832888787 C16.7991477,0.832888787 16.7399687,0.810970661 16.6818857,0.768230316 C16.6248986,0.727681783 16.596405,0.67507828 16.596405,0.608227996 L16.596405,0.0646584716 L16.6742143,0.00876725039 C16.9766845,0.00664614142 17.3521071,0.0053461069 17.7609117,0.00462877036 L18.179378,0.00409683772 C18.2504884,0.00403761148 18.3221597,0.00399236409 18.3942087,0.00395999198 L19.0479008,0.00398647826 C19.1205672,0.00402142542 19.1930616,0.00406593707 19.2652009,0.00411890962 L19.8999209,0.00479430956 C19.9682809,0.00488811511 20.0357362,0.00498707076 20.1021036,0.00509007293 L20.4857877,0.00574781536 C20.5470707,0.0058625892 20.6068995,0.00597920238 20.6650908,0.00609655128 L20.9931233,0.00680064468 C21.0440319,0.00691652212 21.0929366,0.0070309281 21.1396543,0.00714275903 L21.3922499,0.00777401518 C21.4294865,0.00787113151 21.4641696,0.0079634656 21.4961161,0.00804991385 L21.7471646,0.00876725039 L21.8096313,0.0657543779 L21.8096313,0.609323902 C21.8096313,0.759463065 21.7252465,0.833984694 21.5586687,0.833984694 C20.7411226,0.872341414 20.573449,0.95343848 20.2742665,1.38412966 C20.1109765,1.6186536 19.78878,2.12386641 19.4545286,2.69154587 L16.5854459,8.05710311 C16.5854459,8.05710311 16.5579699,8.1145101 16.5069103,8.22098447 L20.011249,15.3941958 L20.2238548,15.4522788 L25.7472226,2.34414357 C25.9390062,1.81591674 25.9094167,1.44111678 25.6628378,1.22083962 C25.415163,1.00713789 25.2409139,0.878916852 24.6009046,0.852615101 L24.0825409,0.827409256 C24.0189784,0.827409256 23.9587035,0.804395224 23.9006205,0.760558972 C23.8436333,0.720010439 23.8140439,0.66631103 23.8140439,0.601652558 L23.8140439,0.0558912213 L23.8929491,3.55271368e-15 L30.1330396,3.55271368e-15 Z M33.9734788,5.74345861 C34.0940943,5.86407406 34.0940943,6.28621716 33.9734788,6.40682165 C32.566368,6.4670965 32.2246316,6.5677007 32.2246316,8.23610845 L32.2246316,16.2970472 C32.2246316,17.9655207 32.5663352,18.0660592 33.9734788,18.126334 C34.0940943,18.2469495 34.0940943,18.6690926 33.9734788,18.7896971 C32.9684232,18.7695324 32.3854449,18.7494773 31.3803454,18.7494773 C30.355125,18.7494773 29.7520478,18.769642 28.7670472,18.7896971 C28.6464317,18.6690926 28.6464317,18.2469495 28.7670472,18.126334 C30.174158,18.0660592 30.5158945,17.9655646 30.5158945,16.2970472 L30.5158945,8.23610845 C30.5158945,6.5676459 30.1741909,6.4670965 28.7670472,6.40682165 C28.6464317,6.28621716 28.6464317,5.86407406 28.7670472,5.74345861 C29.7721029,5.76362329 30.3550812,5.78367837 31.3601807,5.78367837 C32.385401,5.78367837 32.9884783,5.76351369 33.9734788,5.74345861 Z M117.412431,15.2833229 L117.412431,3.94288456 C117.412431,1.59567245 117.893194,1.45430054 119.872741,1.36947739 C120.04242,1.19978726 120.04242,0.605915634 119.872741,0.436236461 C118.487077,0.464510844 117.638626,0.492785226 116.196413,0.492785226 C114.782365,0.492785226 113.962299,0.464510844 112.54836,0.436236461 C112.378681,0.605915634 112.378681,1.19978726 112.54836,1.36947739 C114.528006,1.45430054 115.00867,1.59571628 115.00867,3.94288456 L115.00867,15.2833229 C115.00867,17.6305351 114.527918,17.771907 112.54836,17.8568397 C112.378681,18.0265189 112.378681,18.6203905 112.54836,18.7900697 C113.934024,18.7617953 114.782475,18.7335209 116.224688,18.7335209 C117.638626,18.7335209 118.458802,18.7617953 119.872741,18.7900697 C120.04242,18.6203905 120.04242,18.0265189 119.872741,17.8568397 C117.893095,17.7720166 117.412431,17.6306008 117.412431,15.2833229 Z M106.7474,16.297376 L106.7474,8.23643722 C106.7474,6.56802947 107.089136,6.46742527 108.496247,6.40715042 C108.616862,6.28654594 108.616862,5.86440283 108.496247,5.74378738 C107.511246,5.76384247 106.908169,5.78400714 105.882949,5.78400714 C104.877849,5.78400714 104.294871,5.76395206 103.289815,5.74378738 C103.1692,5.86440283 103.1692,6.28654594 103.289815,6.40715042 C104.696959,6.46742527 105.038663,6.56797467 105.038663,8.23643722 L105.038663,16.297376 C105.038663,17.9658933 104.696926,18.0663879 103.289815,18.1266628 C103.1692,18.2472782 103.1692,18.6694213 103.289815,18.7900258 C104.274816,18.7699708 104.877893,18.7498061 105.903113,18.7498061 C106.908224,18.7498061 107.491191,18.7698612 108.496247,18.7900258 C108.616862,18.6694213 108.616862,18.2472782 108.496247,18.1266628 C107.089103,18.0663879 106.7474,17.9658495 106.7474,16.297376 Z M93.1547204,5.74343669 C97.0142832,5.74343669 100.089944,8.81901005 100.089944,12.5580232 C100.089944,17.5031907 96.3509311,18.7896751 93.5165887,18.7896751 C91.4460929,18.7896751 90.6017848,18.7494554 89.8580151,18.7494554 L89.491775,18.750361 C88.6760579,18.7544948 88.1065924,18.7721269 87.2447169,18.7896751 C87.1241015,18.6690707 87.1241015,18.2469276 87.2447169,18.1263121 C88.6518277,18.0660373 88.9935642,17.9655427 88.9935642,16.2970253 L88.9935642,8.23608653 C88.9935642,6.56762398 88.6518606,6.46707458 87.2447169,6.40679973 C87.1241015,6.28619525 87.1241015,5.86405214 87.2447169,5.74343669 C88.2497726,5.76360137 88.8327509,5.78365645 89.8378504,5.78365645 C90.6218618,5.78367837 91.868236,5.74343669 93.1547204,5.74343669 Z M92.3908079,6.42728222 C91.4058074,6.42728222 90.7022355,6.70871096 90.7022355,7.4122828 L90.7022355,17.0813654 C90.7022355,17.7246296 90.9233894,18.1065748 92.8933906,18.1065748 C95.727733,18.1065748 98.1600971,17.1014096 98.1600971,13.0408576 C98.1600971,9.94514144 96.7328983,6.42728222 92.3908079,6.42728222 Z M79.3673424,11.4926707 L77.5380556,11.4926707 L77.5380556,7.47222888 C77.5380556,6.98978901 77.7792756,6.58774482 78.2617264,6.58774482 L80.3724419,6.58774482 C81.8800802,6.58774482 82.2017287,7.39182223 82.6439269,8.77889988 C82.8851578,8.81911964 83.1062788,8.77889988 83.3073009,8.67840527 C83.2067953,7.85421798 82.9052567,5.92439274 82.8650589,5.76362329 C82.8650589,5.72340352 82.84496,5.70334844 82.7846522,5.70334844 C82.4429158,5.76362329 82.2821025,5.78378796 81.7996517,5.78378796 L76.6736595,5.78378796 C76.6736595,5.78378796 75.0855817,5.76373288 74.0805261,5.7435682 C73.9599106,5.86418365 73.9599106,6.28632675 74.0805261,6.40693124 C75.4876697,6.46720609 75.8293733,6.56775549 75.8293733,8.23621804 L75.8293733,16.2971568 C75.8293733,17.9656742 75.4876369,18.0661688 74.0805261,18.1264436 C73.9599106,18.2470591 73.9599106,18.6692022 74.0805261,18.7898067 C75.0655266,18.7697516 76.6938242,18.7495869 76.6938242,18.7495869 L81.0157499,18.7495869 C81.9806515,18.7495869 83.5888283,18.7898067 83.5888283,18.7898067 C83.870257,17.7847072 84.1717847,16.4579372 84.332598,15.4328265 C84.111477,15.3323319 83.8903559,15.2720022 83.6290261,15.3323319 C83.2269819,16.7796953 82.5233663,17.9656851 80.9956729,17.9656851 L78.261825,17.9656851 C77.819583,17.9656851 77.5381543,17.6440476 77.5381543,17.101289 L77.5381543,12.2567256 L79.3674411,12.2567256 C81.0760686,12.2567256 81.136453,12.7190775 81.1967279,13.6236496 C81.3173433,13.744265 81.7394864,13.744265 81.8600909,13.6236496 C81.839992,12.9200777 81.8198821,12.5381325 81.8198821,11.8546376 C81.8198821,11.1711647 81.839981,10.7289227 81.8600909,10.1258454 C81.7394754,10.00523 81.3173323,10.00523 81.1967279,10.1258454 C81.1364201,11.2315053 81.0761124,11.4927694 79.3674411,11.4927694 L79.3673424,11.4926707 Z M66.3495099,5.64300784 C70.0683912,5.64300784 70.8523697,7.79394313 70.8523697,8.97993293 C70.8523697,10.6885604 69.7467098,13.0807047 66.0881362,13.0807047 C65.3845315,13.0807047 64.9020807,13.020397 64.4598386,12.8796826 L64.4598386,16.2970472 C64.4598386,17.9655207 64.9423662,18.0458945 66.5102793,18.126334 C66.6308948,18.2469495 66.6308948,18.6690926 66.5102793,18.7896971 C65.5051141,18.7695324 64.7412674,18.7494773 63.6155524,18.7494773 C62.5903321,18.7494773 61.9872548,18.769642 61.0022543,18.7896971 C60.8816388,18.6690926 60.8816388,18.2469495 61.0022543,18.126334 C62.4093651,18.0660592 62.7511015,17.9655646 62.7511015,16.2970472 L62.7512111,8.23615228 C62.7512111,6.56768974 62.4095075,6.46714033 61.0023638,6.40686549 C60.8817484,6.286261 60.8817484,5.86411789 61.0023638,5.74350245 C62.0074195,5.76366712 62.5903978,5.78372221 63.5954973,5.78372221 C64.3995638,5.78372221 65.8268612,5.64300784 66.3495099,5.64300784 Z M66.2085763,6.32645884 C64.7612567,6.32645884 64.459729,7.02998685 64.459729,7.61294325 L64.4596194,12.2967372 C64.6807733,12.357012 65.4848727,12.3972318 65.9874224,12.3972318 C67.9373356,12.3972318 68.9826439,11.5127258 68.9826439,9.34173543 C68.9826439,6.78881075 67.5956649,6.32645884 66.2085763,6.32645884 Z M56.1103477,16.2970472 L56.1103477,8.23610845 C56.1103477,6.5677007 56.4520842,6.4670965 57.859195,6.40682165 C57.9798104,6.28621716 57.9798104,5.86407406 57.859195,5.74345861 C56.8741944,5.76351369 56.2711172,5.78367837 55.2458968,5.78367837 C54.2407973,5.78367837 53.657819,5.76362329 52.6527633,5.74345861 C52.5321479,5.86407406 52.5321479,6.28621716 52.6527633,6.40682165 C54.059907,6.4670965 54.4016106,6.5676459 54.4016106,8.23610845 L54.4016106,16.2970472 C54.4016106,17.9655646 54.0598742,18.0660592 52.6527633,18.126334 C52.5321479,18.2469495 52.5321479,18.6690926 52.6527633,18.7896971 C53.6377639,18.769642 54.2408412,18.7494773 55.2660615,18.7494773 C56.271161,18.7494773 56.8541393,18.7695324 57.859195,18.7896971 C57.9798104,18.6690926 57.9798104,18.2469495 57.859195,18.126334 C56.4520513,18.0660592 56.1103477,17.9655207 56.1103477,16.2970472 Z M40.6142326,16.2970472 L40.6142326,12.5580341 C41.2775957,12.5780892 41.8203871,12.7992541 42.2223656,13.3018038 L45.4990158,17.2820259 C45.8809501,17.7845756 45.90106,18.3072243 45.90106,18.6691145 C45.90106,18.7293893 45.9211589,18.789719 46.0015765,18.789719 C46.4036207,18.7696639 46.7453462,18.7494992 47.3484453,18.7494992 C48.1324238,18.7494992 48.4339515,18.7695543 49.3787214,18.789719 C49.4993368,18.6691145 49.4993368,18.2469714 49.3787214,18.1263559 C49.016886,18.0861362 48.2730615,18.1263559 47.6097094,17.2820697 L43.2073442,12.055583 C43.026432,11.8545609 42.9661243,11.7138465 42.9661243,11.5530223 C42.9661243,11.4123079 43.0465309,11.2917034 43.7099049,10.5680217 L46.5241923,7.53258044 C47.4488852,6.54757986 48.333424,6.50738201 49.1374905,6.40686549 C49.2581059,6.286261 49.2581059,5.86411789 49.1374905,5.74340381 C48.1926987,5.76355753 48.0318306,5.78372221 47.2277641,5.78372221 C46.4236867,5.78372221 45.90106,5.76366712 44.9562792,5.74340381 C44.8356637,5.86411789 44.8356637,6.286261 44.9562792,6.40686549 C45.6799499,6.48730501 46.4840821,6.3868104 45.5191366,7.45217379 L42.1419918,10.9900881 C41.7198487,11.4122312 41.3178045,11.7137698 40.6141888,11.7740775 L40.6141888,8.23605365 C40.6141888,6.5676459 40.9559253,6.4670417 42.3630361,6.40676686 C42.4836515,6.28616237 42.4836515,5.86401926 42.3630361,5.74340381 C41.3780355,5.7634589 40.7749583,5.78362358 39.7497379,5.78362358 C38.7446384,5.78362358 38.1616601,5.76356849 37.1566044,5.74340381 C37.035989,5.86401926 37.035989,6.28616237 37.1566044,6.40676686 C38.5637481,6.4670417 38.9054517,6.56759111 38.9054517,8.23605365 L38.9054517,16.2969924 C38.9054517,17.9655098 38.5637153,18.0660044 37.1566044,18.1262792 C37.035989,18.2468947 37.035989,18.6690378 37.1566044,18.789719 C38.141605,18.7695872 38.7446823,18.7494225 39.7699026,18.7494225 C40.7750021,18.7494225 41.3579804,18.7694776 42.3630361,18.789719 C42.4836515,18.6690378 42.4836515,18.2468947 42.3630361,18.1262792 C40.9558924,18.0660044 40.6141888,17.9654659 40.6141888,16.2969924 L40.6142326,16.2970472 Z" id="olo-wordmark" fill="#000000" fill-rule="nonzero"></path>
    </g>
</svg>

<svg xmlns="http://www.w3.org/2000/svg" width="120" height="20"><path fill="#000" fill-rule="nonzero" d="m30.133 0 .064.056v.546c0 .148-.085.222-.251.222-.818.036-1.424.214-1.816.53-.394.32-.7.758-.92 1.33 0 0-1.559 3.566-3.245 7.405l-.281.641-.283.644-.282.641a986.36 986.36 0 0 1-2.727 6.16c-.666 1.266-1.32 1.15-1.895-.037a244.588 244.588 0 0 1-1.899-4.07l-.353-.77c-.369-.807-.733-1.608-1.062-2.332-1.175 2.425-2.786 5.713-3.584 7.193-.776 1.35-1.415 1.173-1.923.035-.85-2.005-2.131-4.74-3.422-7.496l-.595-1.27c-1.185-2.534-2.322-4.99-3.08-6.812-.316-.755-.554-1.24-.778-1.431C1.575.995 1.106.88.392.843.13.814 0 .75 0 .648V.077L.064.02.289.02h.295l.17-.001h.804l.226-.001h2.963l.232.001h1.015l.167.001h.686l.064.057V.62c0 .15-.096.223-.283.223l-.708.03c-.607.025-.91.206-.91.543 0 .157.063.412.204.754.567 1.38 1.712 3.903 2.855 6.377l.274.592a879.747 879.747 0 0 0 2.909 6.207l.015.033.172.045 3.027-6.039-.607-1.343-2.08-4.088s-.402-.818-.54-1.09c-.913-1.81-.894-1.906-1.817-2.029-.26-.034-.393-.067-.393-.195V.067L9.107.01h.91l.207-.001 2.2-.001h2.066l.143.047v.57c0 .131-.094.198-.283.198l-.39.056c-.987.077-.826.48-.17 1.785l1.996 4.086 2.207-4.4c.344-.751.301-.977.17-1.155l-.029-.038c-.088-.104-.381-.273-1.02-.298l-.251-.027a.3.3 0 0 1-.181-.065.187.187 0 0 1-.086-.16V.065l.078-.056c.303-.002.678-.004 1.087-.004h.418l.215-.001H19.9l.202.001h.384l.18.001h.327l.147.001h.252l.104.001h.251l.063.058v.543c0 .15-.085.225-.251.225-.818.038-.986.12-1.285.55-.163.235-.485.74-.82 1.308l-2.869 5.365-.078.164 3.504 7.173.213.058 5.523-13.108c.192-.528.162-.903-.084-1.123-.248-.214-.422-.342-1.062-.368l-.518-.026A.299.299 0 0 1 23.9.761a.189.189 0 0 1-.087-.16V.057L23.893 0h6.24Zm3.84 5.743c.121.121.121.543 0 .664-1.407.06-1.748.16-1.748 1.83v8.06c0 1.669.341 1.77 1.748 1.83.121.12.121.542 0 .663-1.005-.02-1.588-.04-2.593-.04-1.025 0-1.628.02-2.613.04-.12-.12-.12-.543 0-.664 1.407-.06 1.749-.16 1.749-1.829v-8.06c0-1.67-.342-1.77-1.749-1.83-.12-.12-.12-.543 0-.664 1.005.02 1.588.04 2.593.04 1.025 0 1.628-.02 2.613-.04Zm83.44 9.54V3.943c0-2.347.48-2.489 2.46-2.574.17-.17.17-.763 0-.933-1.386.029-2.234.057-3.677.057-1.414 0-2.234-.028-3.648-.057-.17.17-.17.764 0 .933 1.98.085 2.46.227 2.46 2.574v11.34c0 2.348-.48 2.489-2.46 2.574-.17.17-.17.763 0 .933 1.386-.028 2.234-.056 3.677-.056 1.414 0 2.234.028 3.648.056.17-.17.17-.763 0-.933-1.98-.085-2.46-.226-2.46-2.574Zm-10.666 1.014v-8.06c0-1.669.342-1.77 1.75-1.83.12-.12.12-.543 0-.663-.986.02-1.589.04-2.614.04-1.005 0-1.588-.02-2.593-.04-.12.12-.12.543 0 .663 1.407.06 1.749.161 1.749 1.83v8.06c0 1.669-.342 1.77-1.75 1.83-.12.12-.12.542 0 .663.986-.02 1.589-.04 2.614-.04 1.005 0 1.588.02 2.593.04.12-.12.12-.543 0-.663-1.407-.06-1.749-.161-1.749-1.83ZM93.155 5.743c3.86 0 6.935 3.076 6.935 6.815 0 4.945-3.74 6.232-6.573 6.232-2.07 0-2.915-.04-3.659-.04h-.366c-.816.004-1.385.022-2.247.04-.12-.12-.12-.543 0-.664 1.407-.06 1.749-.16 1.749-1.829v-8.06c0-1.67-.342-1.77-1.75-1.83-.12-.12-.12-.543 0-.664 1.006.02 1.589.04 2.594.04.784 0 2.03-.04 3.317-.04Zm-.764.684c-.985 0-1.689.282-1.689.985v9.67c0 .643.221 1.025 2.191 1.025 2.835 0 5.267-1.006 5.267-5.066 0-3.096-1.427-6.614-5.77-6.614Zm-13.024 5.066h-1.829v-4.02c0-.483.241-.885.724-.885h2.11c1.508 0 1.83.804 2.272 2.19.241.041.462 0 .663-.1-.1-.824-.402-2.754-.442-2.914 0-.04-.02-.06-.08-.06-.342.06-.503.08-.985.08h-5.126s-1.588-.02-2.593-.04c-.121.12-.121.542 0 .663 1.407.06 1.748.16 1.748 1.83v8.06c0 1.669-.341 1.77-1.748 1.83-.121.12-.121.542 0 .663.985-.02 2.613-.04 2.613-.04h4.322c.965 0 2.573.04 2.573.04.281-1.005.583-2.332.744-3.357-.222-.1-.443-.161-.704-.1-.402 1.447-1.106 2.633-2.633 2.633h-2.734c-.442 0-.724-.322-.724-.865v-4.844h1.83c1.708 0 1.768.462 1.829 1.367.12.12.542.12.663 0-.02-.704-.04-1.086-.04-1.77 0-.683.02-1.125.04-1.728-.12-.12-.543-.12-.663 0-.06 1.106-.12 1.367-1.83 1.367ZM66.35 5.643c3.718 0 4.502 2.15 4.502 3.337 0 1.709-1.105 4.1-4.764 4.1-.703 0-1.186-.06-1.628-.2v3.417c0 1.669.482 1.749 2.05 1.83.12.12.12.542 0 .663-1.005-.02-1.769-.04-2.894-.04-1.026 0-1.629.02-2.614.04-.12-.12-.12-.543 0-.664 1.407-.06 1.75-.16 1.75-1.829v-8.06c0-1.67-.342-1.77-1.75-1.83-.12-.12-.12-.543 0-.663 1.005.02 1.588.04 2.593.04.805 0 2.232-.141 2.755-.141Zm-.141.683c-1.448 0-1.75.704-1.75 1.287v4.684c.222.06 1.026.1 1.528.1 1.95 0 2.996-.884 2.996-3.055 0-2.553-1.387-3.016-2.774-3.016ZM56.11 16.297v-8.06c0-1.67.342-1.77 1.75-1.83.12-.12.12-.543 0-.664-.986.02-1.589.04-2.614.04-1.005 0-1.588-.02-2.593-.04-.12.121-.12.543 0 .664 1.407.06 1.749.16 1.749 1.83v8.06c0 1.669-.342 1.77-1.75 1.83-.12.12-.12.542 0 .663.986-.02 1.589-.04 2.614-.04 1.005 0 1.588.02 2.593.04.12-.12.12-.543 0-.664-1.407-.06-1.749-.16-1.749-1.829Zm-15.496 0v-3.739c.664.02 1.206.241 1.608.744l3.277 3.98c.382.503.402 1.025.402 1.387 0 .06.02.12.1.12.403-.02.744-.04 1.347-.04.784 0 1.086.02 2.03.04.121-.12.121-.542 0-.663-.361-.04-1.105 0-1.768-.844l-4.403-5.226c-.18-.201-.24-.342-.24-.503 0-.14.08-.261.743-.985l2.814-3.035c.925-.985 1.81-1.026 2.613-1.126.121-.12.121-.543 0-.664-.944.02-1.105.04-1.91.04-.803 0-1.326-.02-2.27-.04-.121.121-.121.543 0 .664.723.08 1.527-.02.562 1.045l-3.377 3.538c-.422.422-.824.724-1.528.784V8.236c0-1.668.342-1.769 1.749-1.83.12-.12.12-.542 0-.663-.985.02-1.588.04-2.613.04-1.005 0-1.588-.02-2.593-.04-.121.121-.121.543 0 .664 1.407.06 1.748.16 1.748 1.83v8.06c0 1.669-.341 1.769-1.748 1.83-.121.12-.121.542 0 .663.985-.02 1.588-.04 2.613-.04 1.005 0 1.588.02 2.593.04.12-.121.12-.543 0-.664-1.407-.06-1.749-.16-1.749-1.829Z"/></svg>
